X:1
T:Sanguine dat vitam
T:Daniel Friderici
T:Source : Bicinia sacra---Rostock---J.Richelius---1642. Editor : André Vierendeels (06/07/17).
T:Notes : Original clefs : G2, C1 Editorial accidentals above the staff
T:Sanguine dat vitam
T:©
T:©
T:©
C:Daniel Friderici
Z:©
%%score [ 1 2 ]
L:1/8
Q:1/4=120
M:2/2
K:C
V:1 treble nm="Soprano 1" snm="S 1"
V:2 treble nm="Soprano 2" snm="S 2"
V:1
 e6 e2 | e4 e4 | f8 | e8- | e8 | d8 | e4 e4 | g6 g2 | e4 f4- | f2 e2 e4- | e4 d2 c2 | d8 | %12
w: San- gui-|ne dat|vi-|tam|_|pul-|lis Ae-|gyp- ti-|us a-||||
 e2 e2 a3 a | e4 g2 f2 | e2 g2 f2 e2 | d2 f2 e2 d2 | c2 e2 d2 cB | A2 d2 c2 A2 | _B4 A2 e2 | %19
w: les, Ae- gyp- ti-|us a- *|||||* les, Ae-|
 f3 f d4 | g2 fe f4- | f2 ed e4 | d8 :: e2 ee f2 d2 | ^c4 z4 | e2 ee f2 d2 | ^c4 z4 | A2 AA a2 f2 | %28
w: gyp- ti- us|a- * * *||les:|Tu mi- hi das vi-|tam,|tu mi- hi das vi-|tam,|tu mi- hi das vi-|
 e4 z4 | g2 gg a2 f2 | e2 a3 a a2 | g2 f2 e4 | d2 g3 g a2 | g2 f2 e4 | d2 f3 f f2 | f2 g4 g2 | %36
w: tam,|tu mi- hi da vi-|tam san- gui- ne|Chri- ste tu-|o, san- gui- ne|Chri- ste tu-|o, san- gui- ne|Chri- ste tu-|
 a8 :| %37
w: o.|
V:2
 z8 | z8 | z8 | A6 A2 | A4 A4 | _B8 | A8 | G8 | A6 A2 | c6 c2 | A8 | _B8 | A8 | c6 d2 | %14
w: |||San- gui-|ne dat|vi-|tam|pul-|lis Ae-|gyp ti-|us|a-|||
 e2 c2 d2 e2 | f2 d2 e2 f2 | g2 e2 f2 g2 | a2 f2 g2 e2 | f2 d2 e2 c2 | d2 A2 a2 gf | e2 dc d4- | %21
w: |||||||
 d2 cB ^c4 | d8 :: z8 | e2 ee f2 d2 | ^c4 z4 | A2 AA a2 f2 | e4 z4 | g2 gg a2 f2 | e4 z4 | %30
w: |les:||Tu mi- hi das vi-|tam,|tu mi- hi das vi-|tam,|tu mi- hi das vi-|tam,|
 z2 f3 f f2 | e2 d4 ^c2 |"^-natural" d2 c3 c A2 | Bc d3 ^c/B/ c2 | d2 d3 d d2 | %35
w: san- gui- ne|Chri- ste _|o, san- gui- ne|Chri- * ste _ _ tu-|o, san- gui- ne|
"^-natural" d2 c2 _B4 | A8 :| %37
w: Chri- ste tu-|o.|

